X: 31157
T: Paddy Fahey's
R: reel
M: 4/4
K: Dmajor
|:AG|F2 DE FGAB|=c3A d3e|fd^ce dcAG|GE E2 A3G|
F2 DE FGAB|=c3A d3e|fd^ce d^cAG|GE E2 D2:|
FG|:Ad d2 faef|dcAB =c2 AG|FD D2 D2 FG|AddB =cAG2|
Ad d2 faed|dcAB =c2 eg|fd=ce dcAG|FDGE [1 D2 FG:|2 D4:|

